X:1
T:Christmas Island, 87.87 D
T:Christmas Island, 87.87 D
T:J. C. Burkett, 1894
T:Public Domain Courtesy of the Cyber Hymnal™
C:J. C. Burkett, 1894
Z:Public Domain
Z:Courtesy of the Cyber Hymnal™
%%score ( 1 2 ) 3
L:1/8
Q:1/4=100
M:4/4
K:D
V:1 treble 
V:2 treble 
V:3 bass 
V:1
 [DF]3 [FA] [GB][FA][DF]D | [DG] [GB]4 z3 | [FA]3 [FA] [GB][FA][DF]D | [CE]6 z2 | %4
 [DF]3 [FA] [GB][FA][DF]D | [EG] [GB]4 z3 | [FA]3 [FA] [GB][FA][EG][CE] | D6 z2 | %8
 [Fd]3 [Ad] [Ge][Bd][Ac][GB] | [GB] [FA]4 z3 | [FA]3 [FA] [Fd][FA][DF]D | [CE]6 z2 | %12
 [DF]3 [FA] [GB][FA][DF]D | [DG] [GB]4 z3 | [FA]3 [FA] [GB][FA][EG][CE] | D6 z2 |] %16
V:2
 x7 D | x8 | x7 D | x8 | x7 D | x8 | x8 | D6 x2 | x8 | x8 | x7 D | x8 | x7 D | x8 | x8 | D6 x2 |] %16
V:3
 [D,A,]3 [D,D] [D,D][D,D][D,A,][F,A,] | [G,B,] [G,D]4 z3 | [D,D]3 [D,D] [D,D][D,D][D,A,][D,F,] | %3
 [A,,A,]6 z2 | [D,A,]3 [D,D] [D,D][D,D][D,A,][F,A,] | [G,B,] [G,D]4 z3 | %6
 [A,D]3 [A,D] [A,D][A,D][A,,A,][A,,G,] | [D,F,]6 z2 | [D,A,]3 [F,D] [G,B,][G,D][G,D][G,D] | %9
 [D,D] [D,D]4 z3 | [D,D]3 [D,D] [D,A,][D,D][D,A,][D,F,] | [A,,A,]6 z2 | %12
 [D,A,]3 [D,D] [D,D][D,D][D,A,][F,A,] | [G,B,] [G,D]4 z3 | [A,D]3 [A,D] [A,D][A,D][A,,A,][A,,G,] | %15
 [D,F,]6 z2 |] %16

